source/images/home/retirement_icon.svg

<?xml version="1.0" encoding="iso-8859-1"?>
<!-- Generator: Adobe Illustrator 18.1.1, SVG Export Plug-In . SVG Version: 6.00 Build 0)  -->
<svg xmlns="http://www.w3.org/2000/svg" xmlns:xlink="http://www.w3.org/1999/xlink" version="1.1" id="Capa_1" x="0px" y="0px" viewBox="0 0 414.98 414.98" style="enable-background:new 0 0 414.98 414.98;" xml:space="preserve" width="512px" height="512px">
<g>
	<path d="M93.174,119.661c1.829,1.764,4.235,2.926,6.901,3.17l0.471,0.098l27.093-1.374   c-5.82,5.495-11.502,11.559-17.021,18.167C67.447,191.469,77.039,279.818,77.47,283.59c0.553,4.609,3.796,8.405,8.283,9.665   c4.43,1.219,9.283-0.382,12.038-3.951c4.43-5.633,43.374-55.746,45.357-79.676c0.065-0.723,0.122-1.455,0.179-2.195l0.569,0.008   c3.487,0,6.73-1.561,8.868-4.243l21.142-26.141c1.333-1.674,2.154-3.625,2.414-5.657c0.309-0.187,0.602-0.382,0.878-0.593   c0.886-0.65,18.996-14.127,31.303-36.367c27.353,31.962,107.021,135.698,109.63,262.325c0.089,4.194,2.447,7.999,6.373,10.023   c2.78,1.366,17.623,8.194,36.749,8.194c12.307,0,23.825-2.821,34.229-8.372c4.503-2.398,6.885-7.56,5.779-12.534   c-1.821-8.218-43.171-190.843-145.306-266.699c2.414-0.447,3.951-0.821,4.381-0.935c0.374-0.098,0.74-0.203,1.097-0.341   c1.772,1.081,3.837,1.683,5.95,1.683h33.563c3.682,0,7.064-1.731,9.234-4.69c0.593,0.415,1.195,0.837,1.796,1.236   c19.33,13.128,78.774,14.631,90,14.778l0.862,0.033c4.471,0,8.397-2.617,10.331-6.991c1.788-4.268,0.845-9.153-2.39-12.437   c-2.349-2.39-53.161-53.543-112.475-63.11c22.793-2.39,60.712-19.696,68.565-23.37c4.235-1.983,6.812-6.275,6.568-10.892   c-0.219-4.617-3.178-8.624-7.69-10.258C362.173,10.844,329.74,0,293.202,0c-22.557,0-42.171,4.146-58.298,12.331   c-35.27,17.907-51.153,38.497-58.062,51.178c-12.77-4.78-31.962-9.202-58.323-8.324C58.791,57.266,6.02,115.808,3.785,118.328   c-3.073,3.487-3.739,8.421-1.707,12.591c1.935,3.95,5.877,6.47,11.014,6.373c10.356-0.675,62.883-4.682,79.587-17.298   C92.841,119.921,93.004,119.791,93.174,119.661z" fill="#7ca4e7"/>
</g>
<g>
</g>
<g>
</g>
<g>
</g>
<g>
</g>
<g>
</g>
<g>
</g>
<g>
</g>
<g>
</g>
<g>
</g>
<g>
</g>
<g>
</g>
<g>
</g>
<g>
</g>
<g>
</g>
<g>
</g>
</svg>

<?xml version="1.0" encoding="UTF-8" standalone="no"?>
<svg width="415px" height="415px" viewBox="0 0 415 415" version="1.1" xmlns="http://www.w3.org/2000/svg" xmlns:xlink="http://www.w3.org/1999/xlink" xmlns:sketch="http://www.bohemiancoding.com/sketch/ns">
    <!-- Generator: Sketch 3.5.2 (25235) - http://www.bohemiancoding.com/sketch -->
    <title>Shape</title>
    <desc>Created with Sketch.</desc>
    <defs></defs>
    <g id="Page-1" stroke="none" stroke-width="1" fill="none" fill-rule="evenodd" sketch:type="MSPage">
        <g id="retirement_icon" sketch:type="MSLayerGroup" fill="#88D4CE">
            <g id="Capa_1" sketch:type="MSShapeGroup">
                <path d="M100.075,122.831 L127.639,121.555 C121.819,127.05 116.137,133.114 110.618,139.722 C67.447,191.469 77.039,279.818 77.47,283.59 C78.023,288.199 81.266,291.995 85.753,293.255 C90.183,294.474 95.036,292.873 97.791,289.304 C102.221,283.671 141.165,233.558 143.148,209.628 C143.213,208.905 143.27,208.173 143.327,207.433 C147.383,207.441 150.626,205.88 152.764,203.198 L173.906,177.057 C175.239,175.383 176.06,173.432 176.32,171.4 C178.084,170.157 196.194,156.68 208.501,134.44 C235.854,166.402 315.522,270.138 318.131,396.765 C318.22,400.959 320.578,404.764 324.504,406.788 C327.284,408.154 342.127,414.982 361.253,414.982 C373.56,414.982 385.078,412.161 395.482,406.61 C399.985,404.212 402.367,399.05 401.261,394.076 C399.44,385.858 358.09,203.233 255.955,127.377 C258.369,126.93 259.906,126.556 260.336,126.442 C263.205,127.182 265.27,127.784 267.383,127.784 L300.946,127.784 C304.628,127.784 308.01,126.053 310.18,123.094 C310.773,123.509 311.375,123.931 311.976,124.33 C331.306,137.458 390.75,138.961 401.976,139.108 C407.309,139.141 411.235,136.524 413.169,132.15 C414.957,127.882 414.014,122.997 410.779,119.713 C408.43,117.323 357.618,66.17 298.304,56.603 C321.097,54.213 359.016,36.907 366.869,33.233 C371.104,31.25 373.681,26.958 373.437,22.341 C373.218,17.724 370.259,13.717 365.747,12.083 C362.173,10.844 329.74,0 293.202,0 C270.645,0 251.031,4.146 234.904,12.331 C199.634,30.238 183.751,50.828 176.842,63.509 C164.072,58.729 144.88,54.307 118.519,55.185 C58.791,57.266 6.02,115.808 3.785,118.328 C0.712,121.815 0.046,126.749 2.078,130.919 C4.013,134.869 7.955,137.389 13.092,137.292 C23.448,136.617 75.975,132.61 92.679,119.994 C95.003,121.425 97.409,122.587 100.075,122.831 Z" id="Shape"></path>
            </g>
        </g>
    </g>
</svg>
